X: 10602
T: MISS FLORA Mc DONALD'S REEL
%R: reel
B: "Edinburgh Repository of Music" v.1 p.60 #2
F: http://digital.nls.uk/special-collections-of-printed-music/pageturner.cfm?id=87776133
Z: 2015 John Chambers <jc:trillian.mit.edu>
M: C
L: 1/8
K: Edor	% Or maybe D
F |\
E2-E>F BEEF | E2-EF d>FDF |\
E2E>F EFGA | (B/c/d) AG FDD :|
|: F |\
E>ee^d eEEF | Ee-ec dD-DF |\
Ee-ed Bcde | faef dDDF :|

%%sep 2 1 500
%%sep 1 1 500

